modules/open-iconic/icons/external-link.svg

<svg xmlns="http://www.w3.org/2000/svg" width="8" height="8" viewBox="0 0 8 8">
  <path d="M0 0v8h8v-2h-1v1h-6v-6h1v-1h-2zm4 0l1.5 1.5-2.5 2.5 1 1 2.5-2.5 1.5 1.5v-4h-4z" />
</svg>

<svg xmlns="http://www.w3.org/2000/svg" width="8" height="8" viewBox="0 0 8 8"><path d="M0 0v8h8V6H7v1H1V1h1V0H0zm4 0l1.5 1.5L3 4l1 1 2.5-2.5L8 4V0H4z"/></svg>
